static/images/mobile/copyright/test-wikidata-wordmark.svg

<svg xmlns="http://www.w3.org/2000/svg" width="130" height="17" viewBox="0 0 130 17"><path d="M122.634562,0 L130,16.7837452 L125.556977,16.7837452 L124.190807,13.4678433 L116.765969,13.4678433 L115.530476,16.7837452 L111.146851,16.7837452 L117.835146,0 L122.634562,0 M122.967194,10.5363953 L120.294252,4.01272049 L117.858906,10.5363953 L122.967194,10.5363953 M113.320845,0 L113.320845,3.07561841 L107.309696,3.07561841 L107.309696,16.7837452 L103.175546,16.7837452 L103.175546,3.07561841 L97.1643981,3.07561841 L97.1643981,0 L113.320845,0 M91.9373123,0 L99.3027506,16.7837452 L94.859728,16.7837452 L93.4935573,13.4678433 L86.0687193,13.4678433 L84.8332263,16.7837452 L80.4496018,16.7837452 L87.1378963,0 L91.9373123,0 M92.2699442,10.5363953 L89.5970024,4.01272049 L87.1616562,10.5363953 L92.2699442,10.5363953 M64.008041,0 L71.3259611,0 C74.1533277,0 76.3867166,0.784938287 78.0261355,2.35476954 C79.6734425,3.91662037 80.4971216,5.93899811 80.4971216,8.42190762 C80.4971216,11.0249751 79.6615625,13.0713815 77.9904957,14.5611301 C76.3273185,16.042874 73.9513736,16.7837452 70.8626514,16.7837452 L64.008041,16.7837452 L64.008041,0 M68.1421915,3.07561841 L68.1421915,13.7081268 L70.8388932,13.7081268 C72.5891644,13.7081268 73.9276137,13.2235598 74.8542442,12.2544163 C75.7808508,11.2772729 76.2441749,9.99176153 76.2441749,8.39787895 C76.2441749,6.74794888 75.7729308,5.45042317 74.830486,4.5053002 C73.8959338,3.55219196 72.5495646,3.07561841 70.7913734,3.07561841 L68.1421915,3.07561841 M60.1827657,0 L60.1827657,16.7837452 L56.0486152,16.7837452 L56.0486152,0 L60.1827657,0 M52.3540161,0 L46.9487344,7.88127218 L54.2785345,16.7837452 L49.0989669,16.7837452 L42.5294702,8.91448733 L42.5294702,16.7837452 L38.3953213,16.7837452 L38.3953213,0 L42.5294702,0 L42.5294702,7.55688994 L47.8040757,0 L52.3540161,0 M34.5700444,0 L34.5700444,16.7837452 L30.4358955,16.7837452 L30.4358955,0 L34.5700444,0 M14.2081688,6.05512375 L9.07612094,17 L7.29416026,17 L0,0 L4.38362444,0 L8.29205926,9.27491096 L12.5568859,0 L15.8832132,0 L20.1480399,9.27491096 L24.0327148,0 L28.4163393,0 L21.1459373,17 L19.3639766,17 L14.2081688,6.05512375"/></svg>

<svg xmlns="http://www.w3.org/2000/svg" width="130" height="17"><path d="M122.635 0 130 16.784h-4.443l-1.366-3.316h-7.425l-1.236 3.316h-4.383L117.835 0h4.8m.332 10.536-2.673-6.523-2.435 6.523h5.108M113.321 0v3.076h-6.011v13.708h-4.134V3.076h-6.012V0h16.157M91.937 0l7.366 16.784H94.86l-1.366-3.316h-7.425l-1.236 3.316H80.45L87.138 0h4.8m.332 10.536-2.673-6.523-2.435 6.523h5.108M64.008 0h7.318c2.827 0 5.06.785 6.7 2.355 1.647 1.562 2.471 3.584 2.471 6.067 0 2.603-.835 4.65-2.507 6.14-1.663 1.48-4.039 2.222-7.127 2.222h-6.855V0m4.134 3.076v10.632h2.697c1.75 0 3.089-.484 4.015-1.454.927-.977 1.39-2.262 1.39-3.856 0-1.65-.471-2.948-1.414-3.893-.934-.953-2.28-1.43-4.039-1.43h-2.649M60.182 0v16.784H56.05V0h4.134m-7.829 0-5.405 7.881 7.33 8.903h-5.18l-6.57-7.87v7.87h-4.134V0h4.134v7.557L47.804 0h4.55M34.57 0v16.784h-4.134V0h4.134M14.208 6.055 9.076 17H7.294L0 0h4.384l3.908 9.275L12.557 0h3.326l4.265 9.275L24.033 0h4.383l-7.27 17h-1.782L14.208 6.055"/></svg>
